!!!OTL: Chishui buwang dajingren
!!!ARE: Asia, China, Shanxi Qinyuan
!! I, 296, 2)
!!!SCT: C2099
!!!YEM: Copyright 1995, estate of Helmut Schaffrath.
**kern
*ICvox
*Ivox
*M2/4
*k[]
*C:
{4cc
8cc
8e
=1
4.g
8a
=2
8.cc
16dd
8gg
8dd
=3
2cc}
=4
{8cc
8b
8a
8gg
=5
8gg
8b
8dd
8ee
=6
8cc
8b
8a
8e
=7
2g}
=8
{8.dd
16gg
8a
8cc
=9
8dd
8gg
8ee
8dd
=10
8cc
16b
16cc
8dd
8a
=11
4.g
8d}
=12
{8dd
8dd
8cc
8dd
=13
8gg
8dd
8cc
8b
=14
8a
16g
16a
8g
8d
=15
2c}
=16
{8a
8g
8e
16d
16e
=17
4.g
8a
=18
8dd
8dd
8cc
8dd
=19
8gg
8dd
8cc
8b
=20
8a
16g
16a
8g
8d
=21
2c}
==
!!!AGN: Wuge, Yangge Maiyengtao
!!!ONB: ESAC (Essen Associative Code) Database: SENGANSU
!!!AMT: simple duple
!!!AIN: vox
!!!EED: Helmut Schaffrath
!!!EEV: 1.0
*-
